X:1
T:Title
%%score { ( 1 4 ) | ( 2 3 ) }
L:1/8
Q:1/4=100
M:4/4
K:Db
V:1 treble nm="Grand Piano"
V:4 treble 
V:2 bass 
V:3 bass 
V:1
 [A,FA]3 A =GAcB | [FA]4 [F,DF]4 | [EG]3 F GBcB | [GB]4 [FA]2 z2 | [A,FA]3 A =GAcB | %5
w: Haldor~Lillenas * * * * *|||||
 [FA]4 [F,DF]4 | [=G,E=G]3 [A,FA] [B,GB]fed | [Ac]6 z2 | [FA]3 [FA] [_F=G][=FA][_GB][DF] | %9
w: ||||
 [FA]4 [EG]4 | [Ge]3 [Gd] [Gc][GB][FA][EG] | [DF]6 z2 | [Fd]3 [Fd] [Gc][Ad]ed |[M:9/8] .d6 z3 | %14
w: |||||
[M:4/4] A3 B [DF]2 [CE]2 | D6 z2 |] %16
w: ||
V:2
 z2 z[K:treble] [A,F] [=G,_F][A,=F][CA][B,G] | [D,A,]8 | G,3 [F,=D] [G,E][K:treble][B,G][CA][B,G] | %3
 [D,A,B,]4 A,2 z2 | z2 z[K:treble] [A,F] [=G,_F][A,=F][CA][B,G] | [D,A,]8 | %6
 [E,,E,]4 z[K:treble] [Fd][Ec][DB] | z2 C4 z2 | [D,D]3 [D,D] [D,D][D,D][D,D][D,A,] | %9
 [D,D]2 D,2 E,2 A,,2 | [A,,A,]3 [A,,A,] [A,,A,][A,,A,][B,,A,][C,A,] | [D,A,]2 D,2 D,2 z2 | %12
 [D,A,]3 [D,A,] [E,A,][F,A,][G,B,G][G,B,G] |[M:9/8] .D6 z3 | %14
[M:4/4] [F,A,D]3 [D,F,D] [A,,A,]2 [A,,G,]2 | F,2 z2 z4 |] %16
V:3
 D,4[K:treble] z4 | x8 | [A,,A,]4 z4[K:treble] | x8 | D,4[K:treble] z4 | x8 | %6
 z4 [=G,,=G,]4[K:treble] | [A,,A,]2 z B, A,G,F,E, | x8 | x8 | x8 | x8 | x8 | %13
[M:9/8] [G,B,]2 G,- G, [G,B,D]2- [G,B,D][G,D][G,B,D] |[M:4/4] x8 | D,2- [D,-G,]2 [D,F,]2 z2 |] %16
V:4
 x8 | x8 | x8 | x8 | x8 | x8 | x8 | C2 z2 z4 | x8 | z2 D2 C2 C2 | x8 | z2 A,2 A,2 z2 | x8 | %13
[M:9/8] z2 B,- B, E2- EBB |[M:4/4] x8 | z2 B,2 A,2 z2 |] %16

